svg/arrow/transfer_4_line.svg

<?xml version="1.0" encoding="UTF-8"?>
<svg width="24px" height="24px" viewBox="0 0 24 24" version="1.1" xmlns="http://www.w3.org/2000/svg" xmlns:xlink="http://www.w3.org/1999/xlink">
    <title>transfer_4_line</title>
    <g id="页面-1" stroke="none" stroke-width="1" fill="none" fill-rule="evenodd">
        <g id="Arrow" transform="translate(-864.000000, 0.000000)" fill-rule="nonzero">
            <g id="transfer_4_line" transform="translate(864.000000, 0.000000)">
                 <path d="M24,0 L24,24 L0,24 L0,0 L24,0 Z M12.5934901,23.257841 L12.5819402,23.2595131 L12.5108777,23.2950439 L12.4918791,23.2987469 L12.4918791,23.2987469 L12.4767152,23.2950439 L12.4056548,23.2595131 C12.3958229,23.2563662 12.3870493,23.2590235 12.3821421,23.2649074 L12.3780323,23.275831 L12.360941,23.7031097 L12.3658947,23.7234994 L12.3769048,23.7357139 L12.4804777,23.8096931 L12.4953491,23.8136134 L12.4953491,23.8136134 L12.5071152,23.8096931 L12.6106902,23.7357139 L12.6232938,23.7196733 L12.6232938,23.7196733 L12.6266527,23.7031097 L12.609561,23.275831 C12.6075724,23.2657013 12.6010112,23.2592993 12.5934901,23.257841 L12.5934901,23.257841 Z M12.8583906,23.1452862 L12.8445485,23.1473072 L12.6598443,23.2396597 L12.6498822,23.2499052 L12.6498822,23.2499052 L12.6471943,23.2611114 L12.6650943,23.6906389 L12.6699349,23.7034178 L12.6699349,23.7034178 L12.678386,23.7104931 L12.8793402,23.8032389 C12.8914285,23.8068999 12.9022333,23.8029875 12.9078286,23.7952264 L12.9118235,23.7811639 L12.8776777,23.1665331 C12.8752882,23.1545897 12.8674102,23.1470016 12.8583906,23.1452862 L12.8583906,23.1452862 Z M12.1430473,23.1473072 C12.1332178,23.1423925 12.1221763,23.1452606 12.1156365,23.1525954 L12.1099173,23.1665331 L12.0757714,23.7811639 C12.0751323,23.7926639 12.0828099,23.8018602 12.0926481,23.8045676 L12.108256,23.8032389 L12.3092106,23.7104931 L12.3186497,23.7024347 L12.3186497,23.7024347 L12.3225043,23.6906389 L12.340401,23.2611114 L12.337245,23.2485176 L12.337245,23.2485176 L12.3277531,23.2396597 L12.1430473,23.1473072 Z" id="MingCute" fill-rule="nonzero"></path>
                <path d="M15.9999,7 C16.51275,7 16.9354092,7.38604429 16.9931725,7.88337975 L16.9999,8 L16.9999,17.6213 L18.8283,15.7929 C19.2188,15.4024 19.852,15.4024 20.2425,15.7929 C20.6030538,16.1533615 20.6307888,16.7206207 20.3257047,17.1128973 L20.2425,17.2071 L16.707,20.7426 C16.3465385,21.1031538 15.7792793,21.1308888 15.3870027,20.8258047 L15.2928,20.7426 L11.7572,17.2071 C11.3667,16.8166 11.3667,16.1834 11.7572,15.7929 C12.1177538,15.4324385 12.6849349,15.4047107 13.0772776,15.7097166 L13.1715,15.7929 L14.9999,17.6213 L14.9999,8 C14.9999,7.44772 15.4476,7 15.9999,7 Z M8.707,3.25725 L12.2425,6.79278 C12.6331,7.18331 12.6331,7.81647 12.2425,8.207 C11.852,8.59752 11.2188,8.59752 10.8283,8.207 L8.99989,6.37857 L8.99989,15.9999 C8.99989,16.5522 8.55217,16.9999 7.99989,16.9999 C7.4476,16.9999 6.99989,16.5522 6.99989,15.9999 L6.99989,6.37857 L5.17146,8.207 C4.78094,8.59752 4.14777,8.59752 3.75725,8.207 C3.36672,7.81647 3.36672,7.18331 3.75725,6.79278 L7.29278,3.25725 C7.68331,2.86672 8.31647,2.86672 8.707,3.25725 Z" id="形状" fill="#09244B"></path>
            </g>
        </g>
    </g>
</svg>

<svg xmlns="http://www.w3.org/2000/svg" width="24" height="24"><g fill="none" fill-rule="nonzero"><path d="M24 0v24H0V0h24ZM12.593 23.258l-.011.002-.071.035-.02.004-.014-.004-.071-.035c-.01-.004-.019-.001-.024.005l-.004.01-.017.428.005.02.01.013.104.074.015.004.012-.004.104-.074.012-.016.004-.017-.017-.427c-.002-.01-.009-.017-.017-.018Zm.265-.113-.013.002-.185.093-.01.01-.003.011.018.43.005.012.008.007.201.093c.012.004.023 0 .029-.008l.004-.014-.034-.614c-.003-.012-.01-.02-.02-.022Zm-.715.002a.023.023 0 0 0-.027.006l-.006.014-.034.614c0 .012.007.02.017.024l.015-.002.201-.093.01-.008.004-.011.017-.43-.003-.012-.01-.01-.184-.092Z"/><path fill="#09244B" d="M16 7a1 1 0 0 1 .993.883L17 8v9.621l1.828-1.828a1 1 0 0 1 1.498 1.32l-.084.094-3.535 3.536a1 1 0 0 1-1.32.083l-.094-.083-3.536-3.536a1 1 0 0 1 1.32-1.497l.095.083L15 17.62V8a1 1 0 0 1 1-1ZM8.707 3.257l3.535 3.536a1 1 0 1 1-1.414 1.414L9 6.379v9.62a1 1 0 1 1-2 0V6.38L5.17 8.207a1 1 0 0 1-1.414-1.414l3.536-3.536a1 1 0 0 1 1.414 0Z"/></g></svg>
